app/assets/images/idv/state-id-and-passport.svg

<svg width="112" height="131" viewBox="0 0 112 131" fill="none" xmlns="http://www.w3.org/2000/svg">
<circle cx="71.5703" cy="40.6807" r="40" fill="#EBF3FA"/>
<path fill-rule="evenodd" clip-rule="evenodd" d="M84.8656 64.0925H5.14062C2.93162 64.0925 1.14062 62.3015 1.14062 60.0925V21.2695C1.14062 19.0605 2.93162 17.2695 5.14062 17.2695H84.8656C87.0746 17.2695 88.8656 19.0605 88.8656 21.2695V60.0925C88.8656 62.3015 87.0746 64.0925 84.8656 64.0925Z" fill="white"/>
<path fill-rule="evenodd" clip-rule="evenodd" d="M84.8656 64.0925H5.14062C2.93162 64.0925 1.14062 62.3015 1.14062 60.0925V21.2695C1.14062 19.0605 2.93162 17.2695 5.14062 17.2695H84.8656C87.0746 17.2695 88.8656 19.0605 88.8656 21.2695V60.0925C88.8656 62.3015 87.0746 64.0925 84.8656 64.0925Z" stroke="#112E51"/>
<path fill-rule="evenodd" clip-rule="evenodd" d="M28.9117 59.0765H8.36268C7.45523 59.0765 6.71875 58.4154 6.71875 57.6008V33.9894C6.71875 33.1748 7.45523 32.5137 8.36268 32.5137H28.9117C29.8192 32.5137 30.5557 33.1748 30.5557 33.9894V57.6008C30.5557 58.4154 29.8192 59.0765 28.9117 59.0765Z" fill="#EBF3FA"/>
<mask id="mask0_628_24298" style="mask-type:luminance" maskUnits="userSpaceOnUse" x="8" y="35" width="21" height="25">
<path fill-rule="evenodd" clip-rule="evenodd" d="M12.9302 40.7001V41.3058C12.368 41.3987 11.9389 41.8829 11.9389 42.4664V43.8399C11.9389 44.4342 12.3828 44.9241 12.9598 45.0055C13.1653 46.9486 14.3941 48.5909 16.1038 49.3931V51.1973H15.7068C11.763 51.1973 8.56641 54.3602 8.56641 58.2621V59.1441H28.4012V58.2621C28.4012 54.3602 25.2038 51.1973 21.2608 51.1973H20.8638V49.3931C22.5735 48.5909 23.8023 46.9486 24.007 45.0055C24.5848 44.9241 25.0287 44.4342 25.0287 43.8399V42.4664C25.0287 41.8829 24.6004 41.3987 24.0374 41.3058V40.7001C24.0374 37.6662 21.5509 35.2061 18.4842 35.2061C15.4166 35.2061 12.9302 37.6662 12.9302 40.7001Z" fill="white"/>
</mask>
<g mask="url(#mask0_628_24298)">
<path fill-rule="evenodd" clip-rule="evenodd" d="M1.28125 63.2543H35.6828V31.0967H1.28125V63.2543Z" fill="#C8D3DD"/>
</g>
<path d="M56.248 25.4014C56.248 24.2968 57.1435 23.4014 58.248 23.4014H81.5859C82.6905 23.4014 83.5859 24.2968 83.5859 25.4014V48.7393C83.5859 49.8438 82.6905 50.7393 81.5859 50.7393H58.248C57.1435 50.7393 56.248 49.8438 56.248 48.7393V25.4014Z" fill="#EBF3FA"/>
<rect x="6.71875" y="23.4014" width="44.4873" height="3.34375" rx="1.67188" fill="#C8D3DD"/>
<rect x="34.9043" y="31.3262" width="16.3027" height="3.34375" rx="1.67188" fill="#C8D3DD"/>
<rect x="34.9043" y="39.251" width="16.3027" height="3.34375" rx="1.67188" fill="#C8D3DD"/>
<rect x="34.9043" y="47.1758" width="16.3027" height="3.34375" rx="1.67188" fill="#C8D3DD"/>
<rect x="34.9043" y="55.7051" width="12.3" height="3.34375" rx="1.67188" fill="#C8D3DD"/>
<rect x="52.6738" y="55.7051" width="29.9717" height="3.34375" rx="1.67188" fill="#C8D3DD"/>
<path fill-rule="evenodd" clip-rule="evenodd" d="M101.967 129.795H33.4163C31.3776 129.795 29.7246 128.188 29.7246 126.207V91.3829C29.7246 89.4014 29.7246 87.7949 29.7246 87.7949H105.659C105.659 87.7949 105.659 89.4014 105.659 91.3829V126.207C105.659 128.188 104.006 129.795 101.967 129.795Z" fill="white"/>
<path fill-rule="evenodd" clip-rule="evenodd" d="M101.968 129.795H33.3519C31.3132 129.795 29.6602 128.188 29.6602 126.207V91.3829C29.6602 89.4014 29.6602 87.7949 29.6602 87.7949L105.66 87.7949C105.66 87.7949 105.66 89.4014 105.66 91.3829V108.795V126.207C105.66 128.188 104.007 129.795 101.968 129.795Z" stroke="#112E51" stroke-width="1.06409"/>
<rect x="59.3809" y="103.053" width="22.5903" height="3.23447" rx="1.61724" fill="#C8D3DD"/>
<rect x="83.6035" y="103.053" width="16.5615" height="3.23447" rx="1.61724" fill="#C8D3DD"/>
<rect x="59.3809" y="110.718" width="40.5178" height="3.23447" rx="1.61724" fill="#C8D3DD"/>
<rect x="59.3809" y="95.3867" width="40.5178" height="3.23447" rx="1.61724" fill="#C8D3DD"/>
<rect x="59.3809" y="118.969" width="25.4393" height="3.23447" rx="1.61724" fill="#C8D3DD"/>
<path fill-rule="evenodd" clip-rule="evenodd" d="M105.518 87.7949H29.6602C29.6602 87.7949 29.6602 86.1883 29.6602 84.2069V49.3829C29.6602 47.4014 31.313 45.7949 33.3517 45.7949H101.827C103.866 45.7949 105.518 47.4014 105.518 49.3829V84.2069C105.518 86.1883 105.518 87.7949 105.518 87.7949Z" fill="white"/>
<path fill-rule="evenodd" clip-rule="evenodd" d="M105.66 87.7949H29.6602C29.6602 87.7949 29.6602 86.1883 29.6602 84.2069V49.3829C29.6602 47.4014 31.313 45.7949 33.3517 45.7949H101.969C104.007 45.7949 105.66 47.4014 105.66 49.3829V84.2069C105.66 86.1883 105.66 87.7949 105.66 87.7949Z" stroke="#112E51" stroke-width="1.06409"/>
<path fill-rule="evenodd" clip-rule="evenodd" d="M54.9708 122.148H38.1612C37.4189 122.148 36.8164 121.607 36.8164 120.941V101.626C36.8164 100.96 37.4189 100.419 38.1612 100.419H54.9708C55.7131 100.419 56.3155 100.96 56.3155 101.626V120.941C56.3155 121.607 55.7131 122.148 54.9708 122.148Z" fill="#EBF3FA"/>
<mask id="mask1_628_24298" style="mask-type:luminance" maskUnits="userSpaceOnUse" x="38" y="102" width="17" height="21">
<path fill-rule="evenodd" clip-rule="evenodd" d="M41.8978 107.115V107.611C41.4379 107.687 41.0869 108.083 41.0869 108.56V109.684C41.0869 110.17 41.45 110.571 41.922 110.637C42.0901 112.227 43.0953 113.57 44.4939 114.226V115.702H44.1691C40.943 115.702 38.3281 118.29 38.3281 121.481V122.203H54.5534V121.481C54.5534 118.29 51.9378 115.702 48.7124 115.702H48.3877V114.226C49.7862 113.57 50.7914 112.227 50.9588 110.637C51.4315 110.571 51.7946 110.17 51.7946 109.684V108.56C51.7946 108.083 51.4443 107.687 50.9837 107.611V107.115C50.9837 104.634 48.9498 102.621 46.4411 102.621C43.9318 102.621 41.8978 104.634 41.8978 107.115Z" fill="white"/>
</mask>
<g mask="url(#mask1_628_24298)">
<path fill-rule="evenodd" clip-rule="evenodd" d="M32.3691 125.565H60.5104V99.2598H32.3691V125.565Z" fill="#C8D3DD"/>
</g>
<path fill-rule="evenodd" clip-rule="evenodd" d="M69.2894 70.7323L50.9991 80.2675C50.5448 80.5043 49.9842 80.3279 49.7473 79.8736C49.5105 79.4193 49.6869 78.8587 50.1412 78.6218L68.4315 69.0867C68.8863 68.8496 69.4464 69.0262 69.6833 69.4805C69.9201 69.9349 69.7442 70.4952 69.2894 70.7323Z" fill="#EDF3FB"/>
<rect x="46.6292" y="77.8034" width="26.1033" height="6.54681" transform="rotate(-27.5341 46.6292 77.8034)" stroke="#EDF3FB" stroke-width="0.987907"/>
<path d="M60.5127 61.7534C60.5127 60.8893 60.1461 60.0514 59.5177 59.4753C59.1249 59.1087 58.9678 58.5326 59.1249 58.0089C59.3868 57.171 59.282 56.2807 58.8631 55.5213C58.4179 54.762 57.6847 54.2383 56.8468 54.055C56.3231 53.9502 55.9041 53.5313 55.7732 52.9814C55.5899 52.1434 55.04 51.4103 54.3068 50.9651C53.5475 50.52 52.6572 50.4414 51.8192 50.7032C51.2955 50.8604 50.7194 50.7032 50.3528 50.3105C49.7768 49.682 48.9388 49.3154 48.0747 49.3154C47.2106 49.3154 46.3727 49.682 45.7966 50.3105C45.43 50.7032 44.8539 50.8604 44.3302 50.7032C43.4923 50.4414 42.602 50.5461 41.8426 50.9651C41.0833 51.4103 40.5596 52.1434 40.3763 52.9814C40.2715 53.5051 39.8525 53.924 39.3027 54.055C38.4647 54.2383 37.7315 54.7882 37.2864 55.5213C36.8412 56.2807 36.7627 57.171 37.0245 58.0089C37.1817 58.5326 37.0245 59.1087 36.6318 59.4753C36.0033 60.0514 35.6367 60.8893 35.6367 61.7534C35.6367 62.6176 36.0033 63.4555 36.6318 64.0316C37.0245 64.3982 37.1817 64.9742 37.0245 65.4979C36.7627 66.3359 36.8674 67.2262 37.2864 67.9855C37.7315 68.7449 38.4647 69.2686 39.3027 69.4519C39.8264 69.5567 40.2453 69.9756 40.3763 70.5255C40.5596 71.3634 41.1094 72.0966 41.8426 72.5418C42.602 72.9869 43.4923 73.0655 44.3302 72.8036C44.8539 72.6465 45.43 72.8036 45.7966 73.1964C46.3727 73.8249 47.2106 74.1914 48.0747 74.1914C48.9388 74.1914 49.7768 73.8249 50.3528 73.1964C50.7194 72.8036 51.2955 72.6465 51.8192 72.8036C52.6572 73.0655 53.5475 72.9607 54.3068 72.5418C55.0662 72.0966 55.5899 71.3634 55.7732 70.5255C55.8779 70.0018 56.2969 69.5828 56.8468 69.4519C57.6847 69.2686 58.4179 68.7187 58.8631 67.9855C59.3082 67.2262 59.3868 66.3359 59.1249 65.4979C58.9678 64.9742 59.1249 64.3982 59.5177 64.0316C60.1461 63.4555 60.5127 62.6176 60.5127 61.7534ZM58.3655 62.7747C57.4752 63.5864 57.1348 64.8433 57.5014 65.9955C57.6324 66.362 57.58 66.781 57.3705 67.1214C57.161 67.4618 56.8468 67.6975 56.454 67.8022C55.2757 68.0641 54.3592 68.9806 54.0973 70.1589C54.0188 70.5517 53.7831 70.8659 53.4427 71.0754C53.1023 71.2849 52.7095 71.3111 52.3167 71.2063C51.1646 70.8397 49.9077 71.1801 49.096 72.0704C48.5722 72.6465 47.5772 72.6465 47.0273 72.0704C46.4251 71.4158 45.5871 71.0754 44.7492 71.0754C44.435 71.0754 44.1207 71.1278 43.8327 71.2063C43.4399 71.3372 43.0472 71.2849 42.7067 71.0754C42.3663 70.8659 42.1307 70.5517 42.0259 70.1589C41.7641 68.9806 40.8476 68.0641 39.6693 67.8022C39.2765 67.7237 38.9622 67.488 38.7528 67.1214C38.5433 66.781 38.5171 66.3882 38.6218 65.9955C38.9884 64.8433 38.648 63.5864 37.7577 62.7747C37.4959 62.5128 37.3388 62.1462 37.3388 61.7534C37.3388 61.3607 37.4959 60.9941 37.7839 60.7322C38.6742 59.9205 39.0146 58.6636 38.648 57.5114C38.5171 57.1448 38.5695 56.7259 38.779 56.3855C38.9884 56.045 39.3027 55.8094 39.6954 55.7308C40.8738 55.469 41.7903 54.5525 42.0521 53.3741C42.1307 52.9814 42.3663 52.6671 42.7067 52.4577C43.0472 52.2482 43.4399 52.222 43.8327 52.3267C44.9849 52.6933 46.2418 52.3529 47.0535 51.4626C47.3154 51.1746 47.6819 51.0175 48.0747 51.0175C48.4675 51.0175 48.8341 51.1746 49.096 51.4626C49.9077 52.3529 51.1646 52.6933 52.3167 52.3267C52.6833 52.1958 53.1023 52.2482 53.4427 52.4577C53.7831 52.6671 54.0188 52.9814 54.0973 53.3741C54.3592 54.5525 55.2757 55.469 56.454 55.7308C56.8468 55.8094 57.161 56.045 57.3705 56.3855C57.58 56.7259 57.6062 57.1186 57.5014 57.5114C57.1348 58.6636 57.4752 59.9205 58.3655 60.7322C58.6536 60.9941 58.8107 61.3607 58.8107 61.7534C58.8107 62.1462 58.6536 62.5128 58.3655 62.7747Z" fill="#EDF3FB"/>
<path d="M48.0749 54.2637C43.9377 54.2637 40.5859 57.6154 40.5859 61.7527C40.5859 65.8899 43.9377 69.2417 48.0749 69.2417C52.2122 69.2417 55.5639 65.8899 55.5639 61.7527C55.5639 57.6154 52.2122 54.2637 48.0749 54.2637Z" fill="#EDF3FB"/>
<path d="M96.833 72.4429L95.5748 73.7011C95.3951 73.8808 95.1254 73.8359 95.0356 73.6562L90.1826 66.3317C90.0927 66.152 89.9129 66.152 89.7781 66.2868L84.8802 71.1847C84.8353 71.2297 84.8353 71.3195 84.8353 71.3645L85.1947 76.3523C85.1947 76.3972 85.1498 76.532 85.1049 76.577L84.2062 77.4757C84.0714 77.6105 83.8467 77.5655 83.7568 77.4307L81.1056 72.4429L80.9259 72.0834C80.8809 72.0385 80.836 71.9936 80.7911 71.9486L80.4316 71.7689L75.3988 69.0728C75.2191 68.9829 75.2191 68.7582 75.3539 68.6234L76.2526 67.7247C76.2975 67.6798 76.3874 67.6798 76.4773 67.6348L81.4202 67.9943C81.4651 67.9943 81.5999 67.9494 81.5999 67.9494L86.4979 63.0514C86.6327 62.9166 86.5877 62.6919 86.4529 62.647L79.1734 57.7041C78.9937 57.5693 78.9038 57.3446 79.0835 57.1649L80.3417 55.9067C80.4316 55.8168 80.5215 55.7719 80.7012 55.8168L90.9465 58.3782C91.0363 58.4231 91.1262 58.3782 91.2161 58.3332L95.3052 54.2441C95.3501 54.1992 95.44 54.1093 95.4849 54.0644C96.6083 53.0309 98.3608 51.9524 99.619 53.0309C99.6639 53.0758 99.6639 53.0758 99.6639 53.0758C99.7089 53.1207 99.7089 53.1207 99.7089 53.1207C100.787 54.3789 99.7538 56.1314 98.6753 57.2548C98.6304 57.2997 98.5405 57.3896 98.4956 57.4345L94.4514 61.4787C94.4065 61.5236 94.3615 61.6584 94.4065 61.7483L96.9678 71.9936C96.9678 72.1733 96.9229 72.353 96.833 72.4429Z" fill="#0071BB"/>
</svg>

<svg xmlns="http://www.w3.org/2000/svg" width="112" height="131" fill="none" viewBox="0 0 112 131"><circle cx="71.57" cy="40.681" r="40" fill="#EBF3FA"/><path fill="#fff" fill-rule="evenodd" d="M84.866 64.093H5.14a4 4 0 0 1-4-4V21.27a4 4 0 0 1 4-4h79.725a4 4 0 0 1 4 4v38.823a4 4 0 0 1-4 4" clip-rule="evenodd"/><path stroke="#112E51" d="M84.866 64.093H5.14a4 4 0 0 1-4-4V21.27a4 4 0 0 1 4-4h79.725a4 4 0 0 1 4 4v38.823a4 4 0 0 1-4 4Z" clip-rule="evenodd"/><path fill="#EBF3FA" fill-rule="evenodd" d="M28.912 59.077H8.362c-.907 0-1.643-.662-1.643-1.476V33.989c0-.814.736-1.475 1.644-1.475h20.549c.907 0 1.644.66 1.644 1.475v23.612c0 .814-.737 1.476-1.644 1.476" clip-rule="evenodd"/><mask id="a" width="21" height="25" x="8" y="35" maskUnits="userSpaceOnUse" style="mask-type:luminance"><path fill="#fff" fill-rule="evenodd" d="M12.93 40.7v.606a1.18 1.18 0 0 0-.991 1.16v1.374a1.18 1.18 0 0 0 1.02 1.165 5.5 5.5 0 0 0 3.145 4.388v1.804h-.397c-3.944 0-7.14 3.163-7.14 7.065v.882H28.4v-.882c0-3.902-3.197-7.065-7.14-7.065h-.397v-1.804a5.5 5.5 0 0 0 3.143-4.388 1.18 1.18 0 0 0 1.022-1.165v-1.374a1.18 1.18 0 0 0-.992-1.16V40.7c0-3.034-2.486-5.494-5.553-5.494s-5.554 2.46-5.554 5.494" clip-rule="evenodd"/></mask><g mask="url(#a)"><path fill="#C8D3DD" fill-rule="evenodd" d="M1.281 63.254h34.402V31.097H1.28z" clip-rule="evenodd"/></g><path fill="#EBF3FA" d="M56.248 25.401a2 2 0 0 1 2-2h23.338a2 2 0 0 1 2 2V48.74a2 2 0 0 1-2 2H58.248a2 2 0 0 1-2-2z"/><rect width="44.487" height="3.344" x="6.719" y="23.401" fill="#C8D3DD" rx="1.672"/><rect width="16.303" height="3.344" x="34.904" y="31.326" fill="#C8D3DD" rx="1.672"/><rect width="16.303" height="3.344" x="34.904" y="39.251" fill="#C8D3DD" rx="1.672"/><rect width="16.303" height="3.344" x="34.904" y="47.176" fill="#C8D3DD" rx="1.672"/><rect width="12.3" height="3.344" x="34.904" y="55.705" fill="#C8D3DD" rx="1.672"/><rect width="29.972" height="3.344" x="52.674" y="55.705" fill="#C8D3DD" rx="1.672"/><path fill="#fff" fill-rule="evenodd" d="M101.967 129.795h-68.55c-2.04 0-3.692-1.607-3.692-3.588V87.795h75.934v38.412c0 1.981-1.653 3.588-3.692 3.588" clip-rule="evenodd"/><path stroke="#112E51" stroke-width="1.064" d="M101.968 129.795H33.352c-2.039 0-3.692-1.607-3.692-3.588V87.795h76v38.412c0 1.981-1.653 3.588-3.692 3.588Z" clip-rule="evenodd"/><rect width="22.59" height="3.234" x="59.381" y="103.053" fill="#C8D3DD" rx="1.617"/><rect width="16.561" height="3.234" x="83.603" y="103.053" fill="#C8D3DD" rx="1.617"/><rect width="40.518" height="3.234" x="59.381" y="110.718" fill="#C8D3DD" rx="1.617"/><rect width="40.518" height="3.234" x="59.381" y="95.387" fill="#C8D3DD" rx="1.617"/><rect width="25.439" height="3.234" x="59.381" y="118.969" fill="#C8D3DD" rx="1.617"/><path fill="#fff" fill-rule="evenodd" d="M105.518 87.795H29.66V49.383c0-1.982 1.653-3.588 3.692-3.588h68.475c2.039 0 3.691 1.606 3.691 3.588z" clip-rule="evenodd"/><path stroke="#112E51" stroke-width="1.064" d="M105.66 87.795h-76V49.383c0-1.982 1.653-3.588 3.692-3.588h68.617c2.038 0 3.691 1.606 3.691 3.588z" clip-rule="evenodd"/><path fill="#EBF3FA" fill-rule="evenodd" d="M54.97 122.148H38.162c-.742 0-1.345-.541-1.345-1.207v-19.315c0-.666.603-1.207 1.345-1.207h16.81c.742 0 1.345.541 1.345 1.207v19.315c0 .666-.603 1.207-1.345 1.207" clip-rule="evenodd"/><mask id="b" width="17" height="21" x="38" y="102" maskUnits="userSpaceOnUse" style="mask-type:luminance"><path fill="#fff" fill-rule="evenodd" d="M41.898 107.115v.496a.966.966 0 0 0-.811.949v1.124c0 .486.363.887.835.953a4.5 4.5 0 0 0 2.572 3.589v1.476h-.325c-3.226 0-5.84 2.588-5.84 5.779v.722h16.224v-.722c0-3.191-2.615-5.779-5.84-5.779h-.325v-1.476a4.5 4.5 0 0 0 2.57-3.589.966.966 0 0 0 .837-.953v-1.124a.965.965 0 0 0-.811-.949v-.496c0-2.481-2.034-4.494-4.543-4.494s-4.543 2.013-4.543 4.494" clip-rule="evenodd"/></mask><g mask="url(#b)"><path fill="#C8D3DD" fill-rule="evenodd" d="M32.37 125.565h28.14V99.26H32.37z" clip-rule="evenodd"/></g><path fill="#EDF3FB" fill-rule="evenodd" d="M69.29 70.732 51 80.267a.928.928 0 0 1-.859-1.645l18.29-9.535a.928.928 0 1 1 .858 1.645" clip-rule="evenodd"/><path stroke="#EDF3FB" stroke-width=".988" d="m46.629 77.803 23.146-12.067 3.027 5.806-23.147 12.067z"/><path fill="#EDF3FB" d="M60.513 61.753a3.1 3.1 0 0 0-.995-2.278 1.45 1.45 0 0 1-.393-1.466 3.17 3.17 0 0 0-.262-2.488 3.1 3.1 0 0 0-2.016-1.466c-.524-.105-.943-.524-1.074-1.074-.183-.838-.733-1.57-1.466-2.016-.76-.445-1.65-.524-2.488-.262-.524.157-1.1 0-1.466-.393a3.1 3.1 0 0 0-2.278-.995 3.1 3.1 0 0 0-2.278.995 1.45 1.45 0 0 1-1.467.393 3.17 3.17 0 0 0-2.487.262 3.1 3.1 0 0 0-1.467 2.016c-.104.524-.523.943-1.073 1.074-.838.183-1.572.733-2.017 1.466-.445.76-.523 1.65-.261 2.488.157.524 0 1.1-.393 1.466a3.1 3.1 0 0 0-.995 2.278c0 .865.366 1.703.995 2.279.393.366.55.942.393 1.466a3.17 3.17 0 0 0 .261 2.487 3.1 3.1 0 0 0 2.017 1.467c.523.105.942.524 1.073 1.073a3.2 3.2 0 0 0 1.467 2.017c.759.445 1.65.523 2.487.262.524-.157 1.1 0 1.467.392a3.1 3.1 0 0 0 2.278.995 3.1 3.1 0 0 0 2.278-.995 1.45 1.45 0 0 1 1.466-.392 3.17 3.17 0 0 0 2.488-.262 3.1 3.1 0 0 0 1.466-2.017c.105-.523.524-.942 1.074-1.073.838-.183 1.57-.733 2.016-1.466.445-.76.524-1.65.262-2.488-.157-.524 0-1.1.393-1.466a3.1 3.1 0 0 0 .995-2.279m-2.148 1.022a3.09 3.09 0 0 0-.864 3.22c.131.367.079.786-.13 1.126s-.524.577-.917.681a3.1 3.1 0 0 0-2.357 2.357 1.38 1.38 0 0 1-.654.916c-.34.21-.733.236-1.126.131a3.09 3.09 0 0 0-3.221.864c-.524.577-1.519.577-2.069 0a3.1 3.1 0 0 0-2.278-.995c-.314 0-.628.053-.916.131a1.31 1.31 0 0 1-1.126-.13 1.5 1.5 0 0 1-.681-.917 3.1 3.1 0 0 0-2.357-2.357 1.34 1.34 0 0 1-.916-.68c-.21-.341-.236-.734-.131-1.126a3.09 3.09 0 0 0-.864-3.221 1.45 1.45 0 0 1-.42-1.022c0-.392.158-.759.446-1.02a3.09 3.09 0 0 0 .864-3.222 1.32 1.32 0 0 1 .131-1.126c.21-.34.524-.576.916-.654a3.1 3.1 0 0 0 2.357-2.357 1.38 1.38 0 0 1 .655-.916c.34-.21.733-.236 1.126-.131a3.09 3.09 0 0 0 3.22-.864 1.37 1.37 0 0 1 1.022-.446c.392 0 .76.158 1.021.446a3.09 3.09 0 0 0 3.22.864 1.32 1.32 0 0 1 1.127.13c.34.21.576.524.654.917a3.1 3.1 0 0 0 2.357 2.357c.393.078.707.314.916.654s.236.734.131 1.126a3.09 3.09 0 0 0 .864 3.221c.289.262.446.629.446 1.021 0 .393-.157.76-.446 1.022"/><path fill="#EDF3FB" d="M48.075 54.264a7.487 7.487 0 0 0-7.49 7.489 7.49 7.49 0 0 0 7.49 7.489 7.487 7.487 0 0 0 7.489-7.49 7.487 7.487 0 0 0-7.49-7.488"/><path fill="#0071BB" d="M96.833 72.443 95.575 73.7c-.18.18-.45.135-.54-.045l-4.852-7.324c-.09-.18-.27-.18-.405-.045l-4.898 4.898c-.045.045-.045.135-.045.18l.36 4.987c0 .045-.045.18-.09.225l-.899.899c-.135.135-.36.09-.45-.045l-2.65-4.988-.18-.36-.135-.134-.36-.18-5.032-2.696c-.18-.09-.18-.315-.045-.45l.899-.898c.044-.045.134-.045.224-.09l4.943.36c.045 0 .18-.046.18-.046l4.898-4.898c.135-.134.09-.36-.045-.404l-7.28-4.943c-.18-.135-.27-.36-.09-.54l1.259-1.257c.09-.09.18-.135.36-.09l10.245 2.561c.09.045.18 0 .27-.045l4.088-4.089.18-.18c1.123-1.033 2.876-2.112 4.134-1.033l.045.045.045.045c1.078 1.258.045 3.01-1.034 4.134l-.18.18-4.044 4.044c-.044.045-.09.18-.044.27l2.56 10.245c0 .18-.044.359-.134.449"/></svg>
